X: 42615
T: Whinny Hills Of Leitrim, The
R: slip jig
M: 9/8
K: Dmajor
|:ABA dcA d2 c|ABA dcA GFG|ABA dcA d2 e|1 faf ege dc/B/G:|2 faf ege dcA||
|:GBB GBd ggg|GBB GBG AFD|GBB GBd gag|1 faf ege dBA:|2 faf ege dBG||

